X:54
M:6/8
L:1/8
K:A
|: A | A>BA e>fe | fga ecA | A>BA ef=g | (f/=g/a)f e2A | A>BA e>fe | fga ecA | Ace fga | fbg a2 :|

